X:16
T:Saw you my Father
M:2/4
L:1/8
B:Thompson's Compleat Collection of 200 Favourite Country Dances, vol. 3 (London, 1773)
Z:Transcribed and edited by Flynn Titford-Mock, 2007
Z:abc's:AK/Fiddler's Companion
K:D
D>EF>G | A2A2 | B2 g>e | dc"tr"BA | d2 dc | "tr"cB"tr"BA |1 A2 z2 :|2 A2 z |
|: G | F>EF>d | {G}F2 ED | E>DEF | G2 G>B | BAFA | AGFE |1 D3 :|2 D4 |]

